!!!OTL: Jack Robson
!!!ONM: 40.
**kern
*clefG2
!Modal -- Conklin/Pearce 
*k[b-e-a-]
*f:
*M6/8
*MM92
{[8e-
8e-]
=1
4a-
16a-
16a-
8a-
8b-
8cc
=2
4e-
8e-
4e-}
{8e-
=3
8a-
8a-
8a-
8a-
8b-
8cc
=4
4e-
[16e-
16e-]
4e-}
{(16a-
16f)
=5
4e-
[16e-
16e-]
8a-
8b-
8cc
=6
4e-
8e-
4e-}
{(16a-
16f)
=7
8e-
8e-
16e-
16e-
8e-
8f
8g
=8
(4f
8c)
4.f}
==
*-
!!!CNT: Folksongs of Maritime Canada
!!!MRD: 1928///-1932///
!!!OCL: Helen Creighton
!!!YOR: Songs and Ballads from Nova Scotia
!!!PPR: J.M. Dent & Sons, Limited
!!!PPP: Toronto, Canada
!!!PDT: 1932///
!!!reprint: Dover Publications, 1992: ISBN 0-486-21703-5
!!!ENC1: Craig Stuart Sapp (music and bibliographic data)                       
!!!ENC2: Marcus Pearce (phrase markings and key designations)                   
!!!ENC3: Darrell Conklin (phrase markings and key designations)   
!!!END: 2002/04/10/
!!!EEV: 2004/06/05
!!!MPN: Mr. Ben Henneberry
!!!PPG: 79
!!!EFL: 40/152
!!!ARE: Canada; Nova Scotia
!!!verses: 11
!!!VTS: 2174363103
